X: 10
T:Acts of Creation
M:4/4
L:1/8
Q:200
C:Words and music by Catherine Faber, (c) 1993
A:Filk
D:on the tapes, "Acts of Creation" and "Bin There, Dun That" and the CD
D:"Made by Magic"
W:You can tell it on the mountain, in the valley far below
W:But you
W:needn't tell the craftsmen what they already know,
W:From the author
W:at her keyboard to the woodwright at his lathe;
W:Every act of
W:creation is an act of faith!
W:From the rancher mending fences, with
W:the wire she has found,
W:To the farmer on his tractor putting
W:seedcorn in the ground
W:In this world of hate and anger it's easy to
W:destroy;
W:Every act of creation is an act of joy!
K:D
F2 E2 D D3|F2 E D3 A,2-|A,2 A, A, G G3|A2 G A3 z2|
D2 F2 A A3|B2 B A3 F2|E2 D2 E4|F F3 E4|
F2 E D3 D2|F E3 D2 A,2-|A,2 A, A, G2 G2|A G3 A3|
D2 F2 z2 A2|B2 A A3 F2|E D3 F4|E4 D4|
F2 E D3 D2|F2 E2 D2 A,2-|A,2 A, A, G G3| A2 G2 A4|
D2 F A3 A2|B2 B2 A2 F2|E D3 E2 E2|F2 F E-E4|
F2 E2 D2 D2|F2 E2 D2 A,2-|A,2 A,2 G2 G2|A G3 A4|
D2 F2 z2 A2|B2 A A3 F2|E D3 F4|E4 D4||
